X: 33743
T: Rattigan's
R: reel
M: 4/4
K: Gmajor
|G2FG EDB,D|g2fg edBA|G2BG DGBG|ABAG FDEF|
(3GFE (3FED EDB,D|g2fg edBA|GABG DGBd|cAFA G2:|
|:Bc|dggf gfed|eaag abag|fdad bdaf|dfaf gfed|
BGG2 EGDE|Ggfg edBA|GABG DGBd|cAFA G2:|

